src/assets/tokenUpload.svg

<svg height="58" viewBox="0 0 58 58" width="58" xmlns="http://www.w3.org/2000/svg"><g fill="#0072cf"><path d="m29.1 51c0-.8.6-1.5 1.4-1.6s1.5.6 1.6 1.4-.6 1.5-1.4 1.6h-.1c-.8 0-1.5-.6-1.5-1.4zm-4.8 1c-.8-.2-1.3-1-1.2-1.8.2-.8 1-1.3 1.8-1.2.8.2 1.3 1 1.2 1.8-.1.7-.8 1.2-1.5 1.2-.1.1-.2 0-.3 0zm10.7-1.8c-.3-.8.1-1.6.9-1.9s1.6.1 1.9.9-.1 1.6-.9 1.9c-.2.1-.3.1-.5.1-.6 0-1.2-.4-1.4-1zm-16.7-.3c-.7-.4-1-1.3-.6-2s1.3-1 2-.6 1 1.3.6 2c-.3.5-.8.8-1.3.8-.3 0-.5-.1-.7-.2zm22.2-2.1c-.5-.7-.3-1.6.3-2.1.7-.5 1.6-.3 2.1.3.5.7.3 1.6-.4 2.1-.3.2-.6.3-.9.3s-.8-.2-1.1-.6zm-27.5-1.6c-.6-.6-.6-1.5-.1-2.1.6-.6 1.5-.6 2.1-.1.6.6.6 1.5.1 2.1-.3.3-.7.5-1.1.5-.3 0-.7-.1-1-.4zm32.2-2.2c-.7-.5-.8-1.5-.2-2.1.5-.6 1.5-.8 2.1-.2.6.5.7 1.5.2 2.1-.3.4-.7.5-1.2.5-.3 0-.7-.1-.9-.3zm-36.2-2.7c-.4-.7-.2-1.6.5-2.1.7-.4 1.6-.2 2.1.5.4.7.2 1.6-.5 2.1-.2.1-.5.2-.8.2-.6 0-1.1-.2-1.3-.7zm39.6-2.2c-.8-.3-1.1-1.2-.8-2s1.2-1.1 2-.8 1.1 1.2.8 2c-.2.6-.8.9-1.4.9-.2 0-.4 0-.6-.1zm-42.2-3.7c-.2-.8.2-1.6 1-1.8s1.6.2 1.9 1c.2.8-.2 1.6-1 1.9-.1 0-.3.1-.4.1-.7-.1-1.3-.5-1.5-1.2zm44.2-2c-.8-.1-1.4-.9-1.3-1.7s.9-1.4 1.7-1.3 1.4.9 1.3 1.7-.8 1.3-1.5 1.3c-.1.1-.1 0-.2 0zm-45.1-4.3c0-.1 0-.1 0 0 0-.9.7-1.6 1.5-1.6s1.5.7 1.5 1.5c0 .8-.7 1.5-1.5 1.5-.8.1-1.5-.6-1.5-1.4zm43.8-2.9c-.1-.8.5-1.6 1.3-1.7s1.6.5 1.7 1.3-.5 1.6-1.3 1.7c-.1 0-.1 0-.2 0-.8 0-1.4-.6-1.5-1.3zm-41.9-1.7c-.8-.2-1.3-1-1-1.9.2-.8 1-1.3 1.8-1 .8.2 1.3 1.1 1 1.9-.2.7-.8 1.1-1.4 1.1-.1 0-.3-.1-.4-.1zm40.4-3.7c-.3-.8 0-1.6.8-2 .8-.3 1.7 0 2 .8s0 1.6-.8 2c-.2.1-.4.1-.6.1-.6 0-1.2-.3-1.4-.9zm-38.4-2c-.7-.4-.9-1.3-.5-2.1.4-.7 1.4-.9 2.1-.5s.9 1.4.5 2.1c-.3.5-.8.7-1.3.7-.3.1-.5 0-.8-.2zm35.5-2.8c-.5-.6-.4-1.6.2-2.1s1.6-.4 2.1.2.4 1.6-.2 2.1c-.3.2-.6.3-1 .3-.4.1-.8-.1-1.1-.5zm-32-2.1c-.6-.6-.5-1.5.1-2.1s1.6-.5 2.1.1c.6.6.5 1.6-.1 2.1-.3.3-.7.4-1 .4-.4 0-.8-.1-1.1-.5zm27.9-1.7c-.7-.5-.8-1.4-.4-2.1.5-.7 1.4-.8 2.1-.4.7.5.8 1.4.4 2.1-.3.4-.8.6-1.2.6-.3.1-.6 0-.9-.2zm-23.3-2c-.4-.7-.1-1.6.6-2s1.6-.1 2 .6.1 1.6-.6 2c-.2.1-.5.2-.7.2-.5 0-1-.3-1.3-.8zm18.3-.5c-.8-.3-1.2-1.1-.9-1.9s1.1-1.2 1.9-.9 1.2 1.1.9 1.9c-.2.6-.8 1-1.4 1-.1 0-.3-.1-.5-.1zm-12.8-1.9c-.2-.8.3-1.6 1.2-1.8.8-.2 1.6.4 1.8 1.2s-.4 1.6-1.2 1.8c-.1 0-.2 0-.3 0-.7 0-1.3-.5-1.5-1.2zm7.4.7c-.8-.1-1.5-.8-1.4-1.6 0-.8.8-1.4 1.6-1.4.8 0 1.5.8 1.4 1.6s-.7 1.4-1.6 1.4z"/><path d="m29 57.5c-15.7 0-28.5-12.8-28.5-28.5s12.8-28.5 28.5-28.5 28.5 12.8 28.5 28.5-12.8 28.5-28.5 28.5zm0-54c-14.1 0-25.5 11.4-25.5 25.5s11.4 25.5 25.5 25.5 25.5-11.4 25.5-25.5-11.4-25.5-25.5-25.5z"/><path d="m38 27.5h-7.5v-7.5c0-.8-.7-1.5-1.5-1.5s-1.5.7-1.5 1.5v7.5h-7.5c-.8 0-1.5.7-1.5 1.5s.7 1.5 1.5 1.5h7.5v7.5c0 .8.7 1.5 1.5 1.5s1.5-.7 1.5-1.5v-7.5h7.5c.8 0 1.5-.7 1.5-1.5s-.7-1.5-1.5-1.5z"/></g></svg>

<?xml version="1.0" encoding="UTF-8"?>
<svg width="58px" height="58px" viewBox="0 0 58 58" version="1.1" xmlns="http://www.w3.org/2000/svg" xmlns:xlink="http://www.w3.org/1999/xlink">
    <!-- Generator: Sketch 49.1 (51147) - http://www.bohemiancoding.com/sketch -->
    <title>token</title>
    <desc>Created with Sketch.</desc>
    <defs></defs>
    <g id="Page-1" stroke="none" stroke-width="1" fill="none" fill-rule="evenodd">
        <g id="token" fill="#0072CF" fill-rule="nonzero">
            <path d="M29.1,51 C29.1,50.2 29.7,49.5 30.5,49.4 C31.3,49.3 32,50 32.1,50.8 C32.2,51.6 31.5,52.3 30.7,52.4 C30.7,52.4 30.6,52.4 30.6,52.4 C29.8,52.4 29.1,51.8 29.1,51 Z M24.3,52 C23.5,51.8 23,51 23.1,50.2 C23.3,49.4 24.1,48.9 24.9,49 C25.7,49.2 26.2,50 26.1,50.8 C26,51.5 25.3,52 24.6,52 C24.5,52.1 24.4,52 24.3,52 Z M35,50.2 C34.7,49.4 35.1,48.6 35.9,48.3 C36.7,48 37.5,48.4 37.8,49.2 C38.1,50 37.7,50.8 36.9,51.1 C36.7,51.2 36.6,51.2 36.4,51.2 C35.8,51.2 35.2,50.8 35,50.2 Z M18.3,49.9 C17.6,49.5 17.3,48.6 17.7,47.9 C18.1,47.2 19,46.9 19.7,47.3 C20.4,47.7 20.7,48.6 20.3,49.3 C20,49.8 19.5,50.1 19,50.1 C18.7,50.1 18.5,50 18.3,49.9 Z M40.5,47.8 C40,47.1 40.2,46.2 40.8,45.7 C41.5,45.2 42.4,45.4 42.9,46 C43.4,46.7 43.2,47.6 42.5,48.1 C42.2,48.3 41.9,48.4 41.6,48.4 C41.3,48.4 40.8,48.2 40.5,47.8 Z M13,46.2 C12.4,45.6 12.4,44.7 12.9,44.1 C13.5,43.5 14.4,43.5 15,44 C15.6,44.6 15.6,45.5 15.1,46.1 C14.8,46.4 14.4,46.6 14,46.6 C13.7,46.6 13.3,46.5 13,46.2 Z M45.2,44 C44.5,43.5 44.4,42.5 45,41.9 C45.5,41.3 46.5,41.1 47.1,41.7 C47.7,42.2 47.8,43.2 47.3,43.8 C47,44.2 46.6,44.3 46.1,44.3 C45.8,44.3 45.4,44.2 45.2,44 Z M9,41.3 C8.6,40.6 8.8,39.7 9.5,39.2 C10.2,38.8 11.1,39 11.6,39.7 C12,40.4 11.8,41.3 11.1,41.8 C10.9,41.9 10.6,42 10.3,42 C9.7,42 9.2,41.8 9,41.3 Z M48.6,39.1 C47.8,38.8 47.5,37.9 47.8,37.1 C48.1,36.3 49,36 49.8,36.3 C50.6,36.6 50.9,37.5 50.6,38.3 C50.4,38.9 49.8,39.2 49.2,39.2 C49,39.2 48.8,39.2 48.6,39.1 Z M6.4,35.4 C6.2,34.6 6.6,33.8 7.4,33.6 C8.2,33.4 9,33.8 9.3,34.6 C9.5,35.4 9.1,36.2 8.3,36.5 C8.2,36.5 8,36.6 7.9,36.6 C7.2,36.5 6.6,36.1 6.4,35.4 Z M50.6,33.4 C49.8,33.3 49.2,32.5 49.3,31.7 C49.4,30.9 50.2,30.3 51,30.4 C51.8,30.5 52.4,31.3 52.3,32.1 C52.2,32.9 51.5,33.4 50.8,33.4 C50.7,33.5 50.7,33.4 50.6,33.4 Z M5.5,29.1 C5.5,29.1 5.5,29.1 5.5,29.1 C5.5,29 5.5,29 5.5,29.1 C5.5,28.2 6.2,27.5 7,27.5 C7.8,27.5 8.5,28.2 8.5,29 C8.5,29 8.5,29 8.5,29 C8.5,29 8.5,29 8.5,29 C8.5,29.8 7.8,30.5 7,30.5 C6.2,30.6 5.5,29.9 5.5,29.1 Z M49.3,26.2 C49.2,25.4 49.8,24.6 50.6,24.5 C51.4,24.4 52.2,25 52.3,25.8 C52.4,26.6 51.8,27.4 51,27.5 C50.9,27.5 50.9,27.5 50.8,27.5 C50,27.5 49.4,26.9 49.3,26.2 Z M7.4,24.5 C6.6,24.3 6.1,23.5 6.4,22.6 C6.4,22.6 6.4,22.6 6.4,22.6 C6.6,21.8 7.4,21.3 8.2,21.6 C9,21.8 9.5,22.7 9.2,23.5 C9,24.2 8.4,24.6 7.8,24.6 C7.7,24.6 7.5,24.5 7.4,24.5 Z M47.8,20.8 C47.5,20 47.8,19.2 48.6,18.8 C49.4,18.5 50.3,18.8 50.6,19.6 C50.9,20.4 50.6,21.2 49.8,21.6 C49.6,21.7 49.4,21.7 49.2,21.7 C48.6,21.7 48,21.4 47.8,20.8 Z M9.4,18.8 C8.7,18.4 8.5,17.5 8.9,16.7 C8.9,16.7 8.9,16.7 8.9,16.7 C9.3,16 10.3,15.8 11,16.2 C11.7,16.6 11.9,17.6 11.5,18.3 C11.2,18.8 10.7,19 10.2,19 C9.9,19.1 9.7,19 9.4,18.8 Z M44.9,16 C44.4,15.4 44.5,14.4 45.1,13.9 C45.7,13.4 46.7,13.5 47.2,14.1 C47.7,14.7 47.6,15.7 47,16.2 C46.7,16.4 46.4,16.5 46,16.5 C45.6,16.6 45.2,16.4 44.9,16 Z M12.9,13.9 C12.3,13.3 12.4,12.4 13,11.8 C13.6,11.2 14.6,11.3 15.1,11.9 C15.7,12.5 15.6,13.5 15,14 C14.7,14.3 14.3,14.4 14,14.4 C13.6,14.4 13.2,14.3 12.9,13.9 Z M40.8,12.2 C40.1,11.7 40,10.8 40.4,10.1 C40.9,9.4 41.8,9.3 42.5,9.7 C43.2,10.2 43.3,11.1 42.9,11.8 C42.6,12.2 42.1,12.4 41.7,12.4 C41.4,12.5 41.1,12.4 40.8,12.2 Z M17.5,10.2 C17.1,9.5 17.4,8.6 18.1,8.2 C18.8,7.8 19.7,8.1 20.1,8.8 C20.5,9.5 20.2,10.4 19.5,10.8 C19.3,10.9 19,11 18.8,11 C18.3,11 17.8,10.7 17.5,10.2 Z M35.8,9.7 C35,9.4 34.6,8.6 34.9,7.8 C35.2,7 36,6.6 36.8,6.9 C37.6,7.2 38,8 37.7,8.8 C37.5,9.4 36.9,9.8 36.3,9.8 C36.2,9.8 36,9.7 35.8,9.7 Z M23,7.8 C22.8,7 23.3,6.2 24.2,6 C25,5.8 25.8,6.4 26,7.2 C26.2,8 25.6,8.8 24.8,9 C24.7,9 24.6,9 24.5,9 C23.8,9 23.2,8.5 23,7.8 Z M30.4,8.5 C29.6,8.4 28.9,7.7 29,6.9 C29,6.1 29.8,5.5 30.6,5.5 C30.6,5.5 30.6,5.5 30.6,5.5 C31.4,5.5 32.1,6.3 32,7.1 C31.9,7.9 31.3,8.5 30.4,8.5 C30.4,8.5 30.4,8.5 30.4,8.5 Z" id="Shape"></path>
            <path d="M29,57.5 C13.3,57.5 0.5,44.7 0.5,29 C0.5,13.3 13.3,0.5 29,0.5 C44.7,0.5 57.5,13.3 57.5,29 C57.5,44.7 44.7,57.5 29,57.5 Z M29,3.5 C14.9,3.5 3.5,14.9 3.5,29 C3.5,43.1 14.9,54.5 29,54.5 C43.1,54.5 54.5,43.1 54.5,29 C54.5,14.9 43.1,3.5 29,3.5 Z" id="Shape"></path>
            <path d="M38,27.5 L30.5,27.5 L30.5,20 C30.5,19.2 29.8,18.5 29,18.5 C28.2,18.5 27.5,19.2 27.5,20 L27.5,27.5 L20,27.5 C19.2,27.5 18.5,28.2 18.5,29 C18.5,29.8 19.2,30.5 20,30.5 L27.5,30.5 L27.5,38 C27.5,38.8 28.2,39.5 29,39.5 C29.8,39.5 30.5,38.8 30.5,38 L30.5,30.5 L38,30.5 C38.8,30.5 39.5,29.8 39.5,29 C39.5,28.2 38.8,27.5 38,27.5 Z" id="Shape"></path>
        </g>
    </g>
</svg>
